X: 10
I: linebreak $
T: Gratiosa
N: Drone: G/D
K: C major
M: 4/4
L: 1/8
P: A
"^Quadernaria"G2Bc d4 | e2Bc d4 | G2Bc d3c | B3/G/A2 G4 :: 
P: B
e2dc B4 | e2dc B4 | 
G2Bc d3c | B3/G/A2 G4 :: 
M: 6/4
P: C
"^Bassadanza"G3AB2 d3cB2 | c4d2 c2B2A2 | G3AB2 d4e2 | e3dc2 A4A2 | B3cd2 d3cB2 | G4G2 G6 :: 
M: 2/4
P: D
"^Piva"GA BA | cB GG | FE G2 :| 
M: 4/4
d3e d4 | B3/A/Bc d3c | B3/G/AA G4 |] 

